X:5010
T:Eighth Of January
T:Battle of New Orleans
R:Reel
C:Trad.
O:USA
Z:Paul Hardy's Session Tunebook 2015 (see www.paulhardy.net). Creative Commons cc by-nc-sa licenced.
M:4/4
L:1/8
Q:1/4=160
K:D
de|"D"fefa fedf|"G"efed "Em"B2 cd|"A7"edef edBc|"D"dBAF D2:|
DE|"D" F2 A2 A3 F|ABAG FEDE|FDAD "G"BDAB|"A7"AF GE "D"D2:|

